X: 24319
T: Lough Key
R: slip jig
M: 9/8
K: Gmajor
B|AGE EDB, DEG|dBA ABd e2g|
dBA AGE EDB,|1 DB,A, A,B,D E2 B:|2 DB,A, A,B,D E2 F||
GFG Bdd cee|GFG BdB AFD|
GFG DGB DG=F|1 ECE AGF G2 F:|2 ECE AGF G2 B||

